X: 1
T: Paddy Killoran's jig
R: jig
%S: s:2 b:11(6+5)
D: From recording by J-P Loyer, Ojnab
Z: Translated to abc by Debby Knight
Z: Condensed by John Chambers
M: 6/8
L: 1/8
K: G
z "^A"|:\
"G"G,3 DB,D | GFG Bdg | "C"edc "(Am)"BcA \
|[1,3  "D"BGE DB,A, :|[2,4  "D"BGF "G"G2 :|
"^B"|: D |\
"G"GBd g3 | "C"ece "G"d2B | "C"cBc "G"dBG |\
[1,3 "Am7"AGA "D"BGE :|[2,4 "D"AGF "G"G2 :|


